proprietary/assets/icons/vervoersmiddelen/schip-hulpdiensten.svg

<svg height="64" viewBox="0 0 64 64" width="64" xmlns="http://www.w3.org/2000/svg"><path d="m0 0h64v64h-64z" fill="none"/><path d="m61.2532 30.014c-3.0492.4291-6.1042.7977-9.15 1.1245l-3.2699-5.1385 2.4244-4.1186c.2068-.3514.1796-.7932-.0687-1.1165l-1.0555-1.3741c-.1892-.2464-.4823-.3908-.793-.3908h-17.3405v-5.9985c0-.5523-.4477-1-1-1s-1 .4477-1 1v5.9985h-3.1194c-.4411 0-.8301.2891-.9574.7114l-4.0316 13.3757c-6.0303.1707-11.7295.2265-16.8997.2323-.5518.0006-.9919.4475-.9919.9993v6.5216c2.2478-.1894 4.5242-1.7916 6.4336-3.0298 1.9766 1.2871 4.4814 3.0596 6.8525 3.0596 2.3918 0 4.8732-1.7723 6.8564-3.0742 1.9973 1.3121 4.4717 3.0742 6.8574 3.0742 2.3693 0 4.8177-1.7338 6.8604-3.0596 1.995 1.298 4.4872 3.0596 6.8535 3.0596 2.3693 0 4.8177-1.7338 6.8604-3.0596 1.9689 1.281 4.3975 2.9924 6.7333 3.0509l4.0052-9.4739c.3027-.7156-.2901-1.4818-1.0595-1.3735zm-34.0944 2.8959-1.8331-3.9195 2.7495.1262 1.7213 3.6805c-.8839.0399-1.7646.0784-2.6377.1128zm6.1674-.2872-1.5606-3.3368 2.7496.1262 1.4324 3.0627c-.8785.0527-1.7509.1014-2.6214.1479zm-.7692-6.6227-1.3121-4h16.4133l-2.3457 4zm6.8959 6.2488-1.2474-2.6672 2.7495.1262 1.1004 2.3529c-.8705.0664-1.7374.1282-2.6025.1881zm6.0808-.4723-.8883-1.8994 2.7495.1262.719 1.5373c-.8615.0813-1.7221.1617-2.5802.2359z"/><path d="m51.5723 40.4343c-1.9217 1.2474-4.3122 2.6357-6.8584 2.6357-2.531 0-4.9498-1.3942-6.8555-2.6357-1.9217 1.2473-4.3122 2.6357-6.8584 2.6357-2.5021 0-4.9015-1.3582-6.8569-2.6426-1.9785 1.2996-4.3679 2.6426-6.8569 2.6426-2.531 0-4.9498-1.3942-6.8555-2.6357-1.9293 1.2523-4.3172 2.6357-6.8589 2.6357-.8727 0-1.7592-.1942-2.5718-.4539v4.0706c.825.1889 1.6932.3133 2.5718.3133 2.7476 0 5.415-1.1777 6.8574-1.9424 1.4419.7647 4.1094 1.9424 6.8569 1.9424 2.7471 0 5.415-1.1777 6.8569-1.9424 1.442.7647 4.1094 1.9424 6.857 1.9424s5.415-1.1777 6.8569-1.9424c1.4419.7647 4.1099 1.9424 6.857 1.9424 2.7476 0 5.415-1.1777 6.8569-1.9424 1.4424.7647 4.1099 1.9424 6.8574 1.9424.8786 0 1.7468-.1244 2.5718-.3134v-4.0726c-.8141.2608-1.7014.456-2.5718.456-2.531 0-4.9502-1.3942-6.8559-2.6357z"/></svg>

<?xml version="1.0" encoding="utf-8"?>
<!-- Generator: Adobe Illustrator 19.1.0, SVG Export Plug-In . SVG Version: 6.00 Build 0)  -->
<svg version="1.2" baseProfile="tiny" xmlns="http://www.w3.org/2000/svg" xmlns:xlink="http://www.w3.org/1999/xlink" x="0px"
	 y="0px" width="64px" height="64px" viewBox="0 0 64 64" xml:space="preserve">
<g id="_x36_4px_Box">
	<rect fill="none" width="64" height="64"/>
</g>
<g id="Icon">
	<g>
		<path d="M61.2532,30.014c-3.0492,0.4291-6.1042,0.7977-9.15,1.1245L48.8333,26l2.4244-4.1186
			c0.2068-0.3514,0.1796-0.7932-0.0687-1.1165l-1.0555-1.3741C49.9443,19.1444,49.6512,19,49.3405,19H32v-5.9985
			c0-0.5523-0.4477-1-1-1s-1,0.4477-1,1V19h-3.1194c-0.4411,0-0.8301,0.2891-0.9574,0.7114l-4.0316,13.3757
			c-6.0303,0.1707-11.7295,0.2265-16.8997,0.2323c-0.5518,0.0006-0.9919,0.4475-0.9919,0.9993L4,40.8403
			c2.2478-0.1894,4.5242-1.7916,6.4336-3.0298c1.9766,1.2871,4.4814,3.0596,6.8525,3.0596c2.3918,0,4.8732-1.7723,6.8564-3.0742
			c1.9973,1.3121,4.4717,3.0742,6.8574,3.0742c2.3693,0,4.8177-1.7338,6.8604-3.0596c1.995,1.298,4.4872,3.0596,6.8535,3.0596
			c2.3693,0,4.8177-1.7338,6.8604-3.0596c1.9689,1.281,4.3975,2.9924,6.7333,3.0509l4.0052-9.4739
			C62.6154,30.6719,62.0226,29.9057,61.2532,30.014z M27.1588,32.9099l-1.8331-3.9195l2.7495,0.1262l1.7213,3.6805
			C28.9126,32.837,28.0319,32.8755,27.1588,32.9099z M33.3262,32.6227l-1.5606-3.3368l2.7496,0.1262l1.4324,3.0627
			C35.0691,32.5275,34.1967,32.5762,33.3262,32.6227z M32.557,26l-1.3121-4h16.4133l-2.3457,4H32.557z M39.4529,32.2488
			l-1.2474-2.6672l2.7495,0.1262l1.1004,2.3529C41.1849,32.1271,40.318,32.1889,39.4529,32.2488z M45.5337,31.7765l-0.8883-1.8994
			l2.7495,0.1262l0.719,1.5373C47.2524,31.6219,46.3918,31.7023,45.5337,31.7765z"/>
		<path d="M51.5723,40.4343c-1.9217,1.2474-4.3122,2.6357-6.8584,2.6357c-2.531,0-4.9498-1.3942-6.8555-2.6357
			C35.9367,41.6816,33.5462,43.07,31,43.07c-2.5021,0-4.9015-1.3582-6.8569-2.6426c-1.9785,1.2996-4.3679,2.6426-6.8569,2.6426
			c-2.531,0-4.9498-1.3942-6.8555-2.6357C8.5014,41.6866,6.1135,43.07,3.5718,43.07c-0.8727,0-1.7592-0.1942-2.5718-0.4539v4.0706
			C1.825,46.8756,2.6932,47,3.5718,47c2.7476,0,5.415-1.1777,6.8574-1.9424C11.8711,45.8223,14.5386,47,17.2861,47
			c2.7471,0,5.415-1.1777,6.8569-1.9424C25.585,45.8223,28.2524,47,31,47s5.415-1.1777,6.8569-1.9424
			C39.2988,45.8223,41.9668,47,44.7139,47c2.7476,0,5.415-1.1777,6.8569-1.9424C53.0132,45.8223,55.6807,47,58.4282,47
			c0.8786,0,1.7468-0.1244,2.5718-0.3134V42.614c-0.8141,0.2608-1.7014,0.456-2.5718,0.456
			C55.8972,43.07,53.478,41.6758,51.5723,40.4343z"/>
	</g>
</g>
</svg>
